X:5908051
T:Reel du p\`ere Bruneau
C:Lorenzo Picard
H:Composed by Lorenzo Picard in honor of Philippe Bruneau
S:Philippe Bruneau, $2Accord\'eon diatonique.$0 Disques Tout Crin, TCDA 19083-2, 2003.
S:From the Archives of the Canadian Museum Of Civilization, recorded between
S:1978 and 1982.
H:On this track Michel Faubert is playing fiddle and Mario Loiselle is playing piano.
H:The chords should be considered my best guesses based on the playing of Mario 
H:Loiselle. There is also a version on the website based on recordings by Lisa 
H:Ornstein & DÃ©nis Pepin and by Raz-de-marÃ©e.
N:From NH Country Dance (URL below), along with many New England, Canadian & Swedish
N:tunes, and resources for abc notation and New England traditional music and dance.
%
N: Note #1: To preserve formatting (font, spacing, etc.), use the
N: file header at the URL below; just follow accompanying instructions.
%
N: Note #2: This abc code is optimized for use with abcm2ps, which is used by
N: EasyABC and other abc apps. To use abc2svg for display or printing look to see if there
N: is a file optimized for abc2svg. If not you may need to adjust the spacing in places.
%
Z:abc-transcription Peter Yarensky. I rely heavily on careful listening to the
Z:named sources aided by software to hear details. While not perfect, known
Z:substantial differences from other written sources receive careful attention.
Z:abc-copyright Peter Yarensky. You may reproduce this tune freely but
Z:please include the entire abc file including all the notes.
%%writefields HQSD
U:s = !slide!
U:t = !trill!
F:Tunes Home Page - https://fiddle-tunes.nhcountrydance.com/
F:abc Header & its Usage - https://fiddle-tunes.nhcountrydance.com/header-page/
M:C|
L:1/8
R:Reel
G:Reels ~ Canadian ~ Quebec
N: Tune Tags ~ Reel, Canadian, Quebec, Lorenzo Picard
K:D
Bc !segno!y|\
   "D" dAFA "G" GBAG | "D"FAEA  D2FA       | "G#dim" dfed "A7" cBAG | "A7" FDEG "G#dim" y30FD"A7"DA |
   "D" dAFA "G" GBAG | "A7"FAEA "D" D2FA   | "G#dim" dfed "A7" cBAG |[1 "A7" FABc "D" dz  :|[2\
   "A7" FABc "D" dz  (3BdB ||
|: "D" AdFA ddAd     | "D" ffdf az zB      |"D" AAFA "G#dim" ddAd   | "A7" c2-cd/c/ B2-Bc/B/   |
   "Em"  E2FF G2A2   | "A7" c2>c2 cc (3BcB |"A7" A2  cB AGFE        | "D" Dddd "G#dim"y(3BcB "A7" AB |
   "D" AAFA ddAd     | "D" ffdf az zB      |"D" AAFA "G#dim" ddAd   | "A7" c2-cd/c/ B2-Bc/B/   |
   "Em"  E2FF G2A2   | "A7" c2>c2 cc (3BcB |"A7" AAcB AGFE          |1 "D" DDFA dz (3BdB  :|2\
   "D" DDFA dzz!D.S.!d |]
%%vskip 20

